svgs/light/mobile-notch.svg

<svg xmlns="http://www.w3.org/2000/svg" viewBox="0 0 384 512"><!--! Font Awesome Pro 6.6.0 by @fontawesome - https://fontawesome.com License - https://fontawesome.com/license (Commercial License) Copyright 2024 Fonticons, Inc. --><path d="M256 32l0 16c0 17.7-14.3 32-32 32l-64 0c-17.7 0-32-14.3-32-32l0-16L96 32C78.3 32 64 46.3 64 64l0 384c0 17.7 14.3 32 32 32l192 0c17.7 0 32-14.3 32-32l0-384c0-17.7-14.3-32-32-32l-32 0zm-32 0l-64 0 0 16 64 0 0-16zM32 64C32 28.7 60.7 0 96 0L288 0c35.3 0 64 28.7 64 64l0 384c0 35.3-28.7 64-64 64L96 512c-35.3 0-64-28.7-64-64L32 64z"/></svg>

<svg xmlns="http://www.w3.org/2000/svg" viewBox="0 0 384 512"><!--! Font Awesome Pro 6.4.0 by @fontawesome - https://fontawesome.com License - https://fontawesome.com/license (Commercial License) Copyright 2023 Fonticons, Inc. --><path d="M256 32V48c0 17.7-14.3 32-32 32H160c-17.7 0-32-14.3-32-32V32H96C78.3 32 64 46.3 64 64V448c0 17.7 14.3 32 32 32H288c17.7 0 32-14.3 32-32V64c0-17.7-14.3-32-32-32H256zm-32 0H160V48h64V32zM32 64C32 28.7 60.7 0 96 0H288c35.3 0 64 28.7 64 64V448c0 35.3-28.7 64-64 64H96c-35.3 0-64-28.7-64-64V64z"/></svg>
